src/components/00-materials/images-raw/Gauge.svg

<svg width="96" height="96" viewBox="0 0 96 96" fill="none" xmlns="http://www.w3.org/2000/svg">
<path d="M51.876 63.7324C51.4906 63.4172 51.0512 63.1744 50.5792 63.0159L50.5792 63.0159L50.5729 63.0139C50.171 62.8848 49.7514 62.8194 49.3294 62.8199L49.3258 62.8199C48.6091 62.8259 47.9068 63.0225 47.2911 63.3896C46.6783 63.7548 46.1733 64.2758 45.8272 64.8994C45.6443 65.2027 45.5059 65.5307 45.4163 65.8734L45.2524 66.4999H45.9H52.79H53.4478L53.2718 65.8661C53.0388 65.0274 52.5511 64.2818 51.876 63.7324ZM51.876 63.7324C51.8758 63.7323 51.8757 63.7322 51.8756 63.7321L51.56 64.1199L51.8766 63.733C51.8764 63.7328 51.8762 63.7326 51.876 63.7324ZM45.9 65.9999C45.9449 65.8284 46.0038 65.6612 46.0762 65.4999H45.9V65.9999ZM45.9 65.9999L46.3837 66.1265C46.3948 66.084 46.407 66.0418 46.4202 65.9999H45.9ZM52.79 65.9999L52.3082 66.1337C52.2958 66.0888 52.2823 66.0442 52.2679 65.9999H52.79ZM52.79 65.9999V65.4999H52.6116C52.6827 65.6614 52.7424 65.8285 52.79 65.9999ZM54.4147 66.507L54.3382 66.0901C54.1717 65.1822 53.7655 64.3352 53.1618 63.6369L53.1529 63.6267L53.1446 63.616L52.9179 63.3231C52.7913 63.1868 52.6523 63.0625 52.5027 62.9519L52.4913 62.9435L52.4915 62.9434C51.952 62.5203 51.3325 62.2106 50.6704 62.0328L50.6663 62.0317C50.2312 61.9109 49.7817 61.8498 49.3302 61.8499H49.33C48.663 61.85 48.0027 61.9827 47.3874 62.2403C46.7732 62.4975 46.2163 62.8741 45.7488 63.3482C45.3729 63.7412 45.0678 64.1961 44.8469 64.693L44.8418 64.7045L44.8361 64.7157C44.6409 65.1014 44.5041 65.514 44.4303 65.9398L44.5216 66.4799H43.93H40.32H39.7668L39.8226 65.9295C39.9332 64.8373 40.2304 63.7721 40.7012 62.7805C40.7496 62.659 40.8068 62.5412 40.8722 62.4281C41.0639 62.063 41.2839 61.7136 41.5303 61.3829C41.6871 61.1446 41.8592 60.9166 42.0453 60.7004L42.2396 60.4576L42.248 60.447L42.257 60.437C43.7048 58.8148 45.6629 57.7352 47.8076 57.3768L47.8118 57.3761C48.2235 57.3108 48.6389 57.2721 49.0556 57.2601L49.0628 57.2599H49.07H49.3397H49.34V57.7599C49.6942 57.7597 50.0481 57.7797 50.4 57.8199L54.4147 66.507ZM54.4147 66.507L54.8385 66.4998L58.3785 66.4398L58.9247 66.4306L58.8672 65.8873C58.7533 64.8106 58.4539 63.7618 57.9825 62.7872C57.6339 62.0237 57.1791 61.3132 56.6317 60.677L54.4147 66.507ZM86.9845 61.6865L87.0427 62.1199H87.3375C87.804 62.4779 88.156 62.9659 88.348 63.524C88.5564 64.1297 88.5654 64.7861 88.3738 65.3973C88.1822 66.0085 87.8 66.5423 87.2832 66.9206C86.7664 67.299 86.1421 67.502 85.5016 67.4999H85.5H12.5011C11.8004 67.4984 11.1223 67.2515 10.5845 66.8023C10.0467 66.353 9.68316 65.7297 9.55691 65.0404C9.43066 64.3511 9.54968 63.6394 9.89333 63.0287C10.237 62.418 10.7836 61.9469 11.4383 61.6971L11.7127 61.5923L11.7548 61.3016C13.0681 52.2329 17.6157 43.9447 24.5592 37.9652C31.5027 31.9858 40.3739 28.7183 49.5371 28.7651C58.7003 28.812 67.5376 32.1702 74.4196 38.2204C81.3015 44.2705 85.7641 52.6048 86.9845 61.6865ZM38.31 66.4999H38.7662L38.8079 66.0457C38.8981 65.0639 39.1201 64.0988 39.4679 63.1763L39.7229 62.4999H39H12.5C11.9696 62.4999 11.4609 62.7106 11.0858 63.0857C10.7107 63.4608 10.5 63.9695 10.5 64.4999C10.5 65.0303 10.7107 65.5391 11.0858 65.9141C11.4609 66.2892 11.9696 66.4999 12.5 66.4999H38.31ZM41.2852 59.0176L41.5763 59.6554L42.0845 59.1723C43.3606 57.9592 44.9232 57.0893 46.6266 56.6436L47.3694 56.4493L46.8912 55.8485L32.8912 38.2585L32.0452 38.7776L41.2852 59.0176ZM48.4095 56.0421L48.5596 56.2299H48.8H49.3396C51.1378 56.2315 52.9056 56.6949 54.4734 57.5758C56.0412 58.4566 57.3565 59.7253 58.2932 61.2604L58.4394 61.4999H58.72H85.33H85.9176L85.8236 60.9199C84.4186 52.2535 79.9753 44.37 73.2889 38.6803C66.6025 32.9905 58.1096 29.8661 49.33 29.8661C40.5505 29.8661 32.0575 32.9905 25.3711 38.6803C18.6847 44.37 14.2414 52.2535 12.8364 60.9199L12.7424 61.4999H13.33H40H40.3016L40.4423 61.2332C40.5283 61.07 40.6229 60.9114 40.7255 60.758L40.8808 60.5261L40.7648 60.2722L31.1448 39.2122L31.1325 39.1852L31.1171 39.1599C30.9077 38.816 30.8375 38.4052 30.9208 38.0113C31.0024 37.6256 31.2252 37.2846 31.545 37.0549C31.8992 36.8649 32.3117 36.8132 32.7023 36.9105C33.1009 37.0099 33.447 37.2569 33.6704 37.6018L33.6839 37.6227L33.6995 37.6421L48.4095 56.0421ZM59.8818 66.0426L59.921 66.4999H60.38H85.5C86.0304 66.4999 86.5391 66.2892 86.9142 65.9141C87.2893 65.5391 87.5 65.0303 87.5 64.4999C87.5 63.9695 87.2893 63.4608 86.9142 63.0857C86.5391 62.7106 86.0304 62.4999 85.5 62.4999H59.71H58.9922L59.241 63.1733C59.5823 64.0966 59.7978 65.0617 59.8818 66.0426Z" stroke="#00008F"/>
<path d="M65.7629 38.3602L65.7632 38.3598C65.8291 38.2455 65.9376 38.1618 66.065 38.1272C66.1923 38.0925 66.3281 38.1096 66.4428 38.1746C66.4999 38.2073 66.55 38.2508 66.5903 38.3029C66.6306 38.3551 66.6602 38.4147 66.6774 38.4784C66.6946 38.5421 66.6991 38.6085 66.6905 38.6739C66.6819 38.7393 66.6604 38.8023 66.6274 38.8594L66.6271 38.8598L64.6271 42.3198L64.6257 42.3224C64.593 42.3797 64.5493 42.4299 64.4972 42.4703C64.445 42.5106 64.3853 42.5402 64.3217 42.5574C64.258 42.5746 64.1916 42.5791 64.1262 42.5705C64.0608 42.5619 63.9979 42.5405 63.9408 42.5075C63.8842 42.4744 63.8346 42.4306 63.7949 42.3784C63.7551 42.326 63.7259 42.2663 63.7092 42.2027C63.6925 42.139 63.6885 42.0727 63.6975 42.0075C63.7064 41.9424 63.7281 41.8796 63.7614 41.8228L63.7629 41.8202L65.7629 38.3602ZM74.1965 52.285L74.1997 52.2832L77.6669 50.2848C77.6673 50.2846 77.6676 50.2844 77.668 50.2842C77.7826 50.2195 77.918 50.2026 78.045 50.2372C78.1721 50.2717 78.2805 50.3551 78.3465 50.4691C78.4121 50.5833 78.43 50.7188 78.3963 50.8461C78.3627 50.9728 78.2807 51.0813 78.168 51.1482C78.1675 51.1485 78.167 51.1488 78.1665 51.1491L74.7003 53.1468L74.7003 53.1468L74.6948 53.15C74.6193 53.1948 74.5334 53.219 74.4456 53.22C74.3352 53.2206 74.2278 53.1846 74.1399 53.1177C74.0519 53.0506 73.9886 52.9561 73.96 52.8492C73.9314 52.7422 73.9391 52.6288 73.9819 52.5267C74.0247 52.4246 74.1002 52.3396 74.1965 52.285ZM24.9103 52.2832L24.9103 52.2832L24.9146 52.2856C24.9725 52.3183 25.0234 52.3622 25.0642 52.4147C25.105 52.4673 25.1348 52.5275 25.1521 52.5917C25.1693 52.656 25.1735 52.7231 25.1645 52.789C25.1555 52.8549 25.1334 52.9183 25.0996 52.9756L25.0996 52.9756L25.0978 52.9786C25.0647 53.0355 25.0208 53.0853 24.9684 53.1251C24.916 53.165 24.8563 53.1941 24.7927 53.2108C24.729 53.2275 24.6627 53.2315 24.5976 53.2226C24.5324 53.2136 24.4696 53.1919 24.4128 53.1586L24.4097 53.1568L20.9397 51.1568L20.9392 51.1565C20.8234 51.09 20.7388 50.9802 20.704 50.8513C20.6692 50.7224 20.687 50.5849 20.7535 50.4692C20.8201 50.3534 20.9299 50.2688 21.0588 50.234L20.9284 49.7513L21.0588 50.234C21.1226 50.2167 21.1892 50.2122 21.2548 50.2207C21.3202 50.2292 21.3834 50.2505 21.4406 50.2833C21.4407 50.2834 21.4408 50.2835 21.4409 50.2835L24.9103 52.2832Z" stroke="#00008F"/>
</svg>

<svg width="96" height="96" viewBox="0 0 96 96" fill="none" xmlns="http://www.w3.org/2000/svg"><path d="M51.876 63.732a4.12 4.12 0 00-1.297-.716h0l-.006-.002a4.05 4.05 0 00-1.244-.194h-.003a4.04 4.04 0 00-3.499 2.08 3.697 3.697 0 00-.41.973l-.165.627h8.196l-.176-.634a4.2 4.2 0 00-1.396-2.134zm0 0s0 0 0 0l-.316.388.317-.387h-.001zM45.9 66a3.2 3.2 0 01.176-.5H45.9v.5zm0 0l.484.126A2.65 2.65 0 0146.42 66h-.52zm6.89 0l-.482.134a3.118 3.118 0 00-.04-.134h.522zm0 0v-.5h-.178c.07.161.13.329.178.5zm1.625.507l-.077-.417a5.18 5.18 0 00-1.176-2.453l-.01-.01-.007-.011-.227-.293a3.004 3.004 0 00-.415-.371l-.012-.008h0a5.09 5.09 0 00-1.82-.911l-.005-.001a4.99 4.99 0 00-1.336-.182h0a5.032 5.032 0 00-3.581 1.498 4.719 4.719 0 00-.902 1.345l-.005.011-.006.012a4.36 4.36 0 00-.406 1.224l.092.54h-4.755l.056-.55a9.596 9.596 0 01.878-3.15 2.7 2.7 0 01.171-.352c.192-.365.412-.714.658-1.045.157-.238.33-.466.515-.683l.195-.242.008-.011.009-.01a9.55 9.55 0 015.55-3.06h.005a9.727 9.727 0 011.244-.117H49.34v.5c.354 0 .708.02 1.06.06l4.015 8.687zm0 0l.424-.007 3.54-.06.546-.01-.058-.543a9.388 9.388 0 00-.884-3.1 8.908 8.908 0 00-1.351-2.11l-2.217 5.83zm32.57-4.82l.058.433h.294a3 3 0 01-1.835 5.38H12.5a3 3 0 01-1.063-5.803l.275-.105.042-.29a37.98 37.98 0 0175.23.385zM38.31 66.5h.456l.042-.454c.09-.982.312-1.947.66-2.87l.255-.676H12.5a2 2 0 000 4h25.81zm2.975-7.482l.291.637.508-.483a10.42 10.42 0 014.543-2.528l.742-.195-.478-.6-14-17.59-.846.519 9.24 20.24zm7.125-2.976l.15.188h.78a10.5 10.5 0 018.953 5.03l.146.24h27.479l-.094-.58a36.97 36.97 0 00-72.988 0l-.094.58H40.302l.14-.267c.086-.163.18-.322.283-.475l.156-.232-.116-.254-9.62-21.06-.012-.027-.016-.025a1.58 1.58 0 01.428-2.105 1.62 1.62 0 012.125.547l.014.02.016.02 14.71 18.4zm11.472 10l.039.458H85.5a2 2 0 000-4H58.992l.249.673c.341.924.557 1.889.64 2.87z" stroke="#00008F"/><path d="M65.763 38.36h0a.5.5 0 11.864.5h0l-2 3.46-.001.002a.502.502 0 01-.685.185.5.5 0 01-.18-.684l.002-.003 2-3.46zm8.433 13.925l.004-.002 3.467-1.998h.001a.5.5 0 01.5.863l-.002.001-3.466 1.998h0l-.005.003a.5.5 0 01-.555-.032.5.5 0 01.056-.833zm-49.286-.002h0l.005.003a.502.502 0 01.185.69h0l-.002.003a.499.499 0 01-.685.18l-.003-.002-3.47-2h0a.503.503 0 01.119-.923l-.13-.483.13.483a.502.502 0 01.382.05l3.47 2z" stroke="#00008F"/></svg>
